packages/core/src/svgs/handy.svg

<svg width="24" height="24" viewBox="0 0 24 24" fill="none" xmlns="http://www.w3.org/2000/svg">
<g clip-path="url(#clip0_31_11231)">
<path d="M0 0H24V24H0V0Z" fill="#F0F3FA"/>
<path d="M12.8572 7.10164C12.8572 6.02164 13.8172 5.14307 15 5.14307C16.1829 5.14307 17.1429 6.02164 17.1429 7.10164V16.8988C17.1429 17.9788 16.1829 18.8574 15 18.8574C13.8172 18.8574 12.8572 17.9788 12.8572 16.8988V7.10164Z" fill="#FFAA4D"/>
<path d="M11.1515 14.1431C11.5766 14.1454 11.9928 14.0208 12.3466 13.7851C12.7004 13.5494 12.9758 13.2134 13.1374 12.8202C13.299 12.4269 13.3395 11.9944 13.2537 11.578C13.1679 11.1616 12.9597 10.7803 12.6557 10.4831C12.457 10.2845 12.2211 10.1271 11.9616 10.0197C11.702 9.91235 11.4238 9.85718 11.1429 9.85735L11.1515 14.1431ZM9.00003 5.14307C7.81718 5.14307 6.85718 6.02164 6.85718 7.10164V16.8988C6.85718 17.9788 7.81718 18.8574 9.00003 18.8574C10.1829 18.8574 11.1429 17.9788 11.1429 16.8988V7.10164C11.1429 6.02164 10.1829 5.14307 9.00003 5.14307ZM11.1429 9.85735L11.1343 14.1431C10.7092 14.1454 10.293 14.0208 9.9392 13.7851C9.58538 13.5494 9.31 13.2134 9.14839 12.8202C8.98677 12.4269 8.94627 11.9944 9.03208 11.578C9.1179 11.1616 9.32611 10.7803 9.63003 10.4831C9.82875 10.2845 10.0646 10.1271 10.3242 10.0197C10.5838 9.91235 10.862 9.85718 11.1429 9.85735Z" fill="#FFAA4D"/>
</g>
<defs>
<clipPath id="clip0_31_11231">
<rect width="24" height="24" fill="white"/>
</clipPath>
</defs>
</svg>

<svg xmlns="http://www.w3.org/2000/svg" width="24" height="24" fill="none" viewBox="0 0 24 24"><g clip-path="url(#a)"><path fill="#F0F3FA" d="M0 0h24v24H0z"/><path fill="#FFAA4D" d="M12.857 7.102c0-1.08.96-1.959 2.143-1.959s2.143.879 2.143 1.959v9.797c0 1.08-.96 1.958-2.143 1.958s-2.143-.878-2.143-1.958z"/><path fill="#FFAA4D" d="M11.152 14.143a2.135 2.135 0 0 0 1.504-3.66 2.14 2.14 0 0 0-1.513-.626zM9 5.143c-1.183 0-2.143.879-2.143 1.959v9.797c0 1.08.96 1.958 2.143 1.958s2.143-.878 2.143-1.958V7.102c0-1.08-.96-1.959-2.143-1.959m2.143 4.714-.009 4.286a2.135 2.135 0 0 1-1.504-3.66 2.14 2.14 0 0 1 1.513-.626"/></g><defs><clipPath id="a"><path fill="#fff" d="M0 0h24v24H0z"/></clipPath></defs></svg>
